X: 1143
T: An Buachaill Caol Dubh
R: waltz
M: 3/4
K: Gmajor
G/A/ Bc|d>g g/f/d/c/ Bc/A/|B>A GF/G/ A/B/c/A/|dg g/f/d/c/ A>G|
G3 G/A/ Bc|dg g/f/d/c/ Bc/A/|B>A GF/G/ A/B/c/A/|dg g/f/d/c/ A>G|G3||
B/c/ dd|b2 ab/a/ g/f/b/a/|g>f dc dd/e/|=fa g/f/d/c/ d/g/^f/a/|
g2 (9G/A/B/c/d/e/f/g/a/ ba|ga (3b/a/g/ (3f/d/c/ Bc/A/|dg g/f/d/c/ A>G|G3||

